!!!CDT:
!!!PTL: Il primo libro de madrigali a quattro voci
!!!PPP: Genoa
!!!PPR: Bartoli
!!!PDT: 1590
!!!PUB-format:
!!!RISM: T 1024
!!!rime: 189
!!!AGN: Madrigal
!!!SCT: Trm0189b
!!!SCA: Trm0189b
!!!original-voices: 4
!!!extant-voices: 4
!!!complete: Y
!!!final: F
!!!COM: Tosone, Marcello
!!!OTL: Secco è l'arbor gentile
**kern	**text	**kern	**text	**kern	**text	**kern	**text
*part4	*part4	*part3	*part3	*part2	*part2	*part1	*part1
*staff4	*staff4	*staff3	*staff3	*staff2	*staff2	*staff1	*staff1
*I"Basso	*	*I"Tenore	*	*I"Alto	*	*I"Canto	*
*I'B	*	*I'T	*	*I'A	*	*I'C	*
*oclefF3	*	*oclefC3	*	*oclefC2	*	*oclefG2	*
*clefF4	*	*clefGv2	*	*clefG2	*	*clefG2	*
*k[b-]	*	*k[b-]	*	*k[b-]	*	*k[b-]	*
*omet(C)	*	*omet(C)	*	*omet(C)	*	*omet(C)	*
*M4/2	*	*M4/2	*	*M4/2	*	*M4/2	*
=1	=1	=1	=1	=1	=1	=1	=1
0r	.	0r	.	1c	Sec-	1cc	Sec-
.	.	.	.	2d	-co è	2b-y	-co è
.	.	.	.	[2f	l'ar-	[2a	l'ar-
=2	=2	=2	=2	=2	=2	=2	=2
4ryy	.	1r	.	4f]	.	4a]	.
4c	Che	.	.	4e	-bor	4g	-bor
8FL	mai	.	.	2a	gen-	2f	gen-
8G	.	.	.	.	.	.	.
8A	.	.	.	.	.	.	.
8B-yJ	.	.	.	.	.	.	.
4c	.	4r	.	2g	-ti-	2e	-ti-
4C	le	4c	Che	.	.	.	.
8DL	fron-	8FL	mai	4f	-le	4a	-le
8E	.	8G	.	.	.	.	.
8F	.	8A	.	4f	Che	4a	Che
8GJ	.	8B-yJ	.	.	.	.	.
=3	=3	=3	=3	=3	=3	=3	=3
4A	.	4c	.	4e	mai	4a	mai
4c	-di e'l	4F	le	4f	le	4a	le
4BnX	ver-	4G	fron-	4d	fron-	4g	fron-
2c	.	4A	-di e'l	4c	-di e'l	4e	-di e'l
.	.	2G	ver-	4.d	ver-	1g	ver-
4BnX	.	.	.	.	.	.	.
.	.	.	.	16cL	.	.	.
.	.	.	.	16dJ	.	.	.
2c	-de	4c	-de	[2e	.	.	.
.	.	[4g	O	.	.	.	.
=4	=4	=4	=4	=4	=4	=4	=4
4r	.	4g]	.	2e]	.	1cc	-de
2c	O	4g	per	.	.	.	.
.	.	2.a	ge-	2e	-de	.	.
4c	per	.	.	.	.	.	.
2d	ge-	.	.	1r	.	1r	.
.	.	2f	-lo o	.	.	.	.
2B-i	-lo o	.	.	.	.	.	.
.	.	4d	per	.	.	.	.
=5	=5	=5	=5	=5	=5	=5	=5
4G	per	4.g	ful-	0r	.	0r	.
4.c	ful-	.	.	.	.	.	.
.	.	8f	-mi-	.	.	.	.
.	.	2e	-ne	.	.	.	.
8B-y	-mi-	.	.	.	.	.	.
2A	-ne	.	.	.	.	.	.
.	.	4c	non	.	.	.	.
4F	non	2d	per-	.	.	.	.
2G	per-	.	.	.	.	.	.
.	.	4e	.	.	.	.	.
=6	=6	=6	=6	=6	=6	=6	=6
2F	-de.	2f	-de.	2r	.	2r	.
1F	O	1f	O	1a	O	1cc	O
2D	mu-	2f	mu-	2bnX	mu-	2dd	mu-
=7	=7	=7	=7	=7	=7	=7	=7
2C	-ta-	2g	-ta-	2cc	-ta-	2ee	-ta-
2.c	-t'è	2g	-t'è	2cc	-t'è	2.ee	-t'è
.	.	4e	la	4cc	la	.	.
4A	la	2a	leg-	2cc	leg-	4ee	la
2d	leg-	.	.	.	.	2ff	leg-
.	.	8gL	.	4bnX	.	.	.
.	.	8fJ	.	.	.	.	.
=8	=8	=8	=8	=8	=8	=8	=8
4c	-ge	4g	-ge	4cc	-ge	4ee	-ge
4A	De	4a	De	4cc	De	4ff	De
4B-y	la	4g	la	2b-i	la	4dd	la
4G	na-	2g	na-	.	.	4dd	na-
4.A	-tu-	.	.	2a	na-	1cc	-tu-
.	.	4f	-tu-	.	.	.	.
8B-y	.	.	.	.	.	.	.
2c	.	2e	.	2g	-tu-	.	.
=9	=9	=9	=9	=9	=9	=9	=9
2F	-ra,	2f	-ra,	2a	-ra,	2cc	-ra,
4r	.	4r	.	4r	.	4r	.
4F	o'l	4a	o'l	4cc	o'l	4ff	o'l
2c	so-	2g	so-	2cc	so-	2ee	so-
4c	-le	4g	-le	4cc	-le	4ee	-le
4F	Men	4a	Men	4cc	Men	4ff	Men
=10	=10	=10	=10	=10	=10	=10	=10
4.F	può	4.f	può	4.a	può	4.cc	può
8E	di	8g	di	8g	di	8cc	di
4F	quel	4f	quel	4a	quel	4cc	quel
4C	che	4e	che	4g	che	4cc	che
2G	suo-	2d	suo-	2g	suo-	2bnX	suo-
2C	-le	2e	-le	2g	-le	4cc	-le
.	.	.	.	.	.	4g	E
=11	=11	=11	=11	=11	=11	=11	=11
0r	.	4r	.	4r	.	2.cc	sol
.	.	4c	E	4g	E	.	.
.	.	2.f	sol	2.a	sol	.	.
.	.	.	.	.	.	4dd	le
.	.	.	.	.	.	4cc	stel-
.	.	4g	le	4e	le	4bnX	-l'A-
.	.	4f	stel-	4a	stel-	[2cc	-mo-
.	.	4e	-l'A-	4g#X	-l'A-	.	.
=12	=12	=12	=12	=12	=12	=12	=12
1r	.	4f	-mo-	4a	-mo-	4cc]	.
.	.	4f	-re e'l	4a	-re e'l	4a	-r'e'l
.	.	4d	mon-	4f	mon-	4b-i	mon-
.	.	4f	-do	4f	-do	4a	-do
2r	.	2c	reg-	2e	reg-	2g	reg-
2F	E	4c	-ge,	2f	-ge,	2a	-ge,
.	.	[4f	E	.	.	.	.
=13	=13	=13	=13	=13	=13	=13	=13
2G	col	4f]	.	0r	.	0r	.
.	.	4e	col	.	.	.	.
2B-y	piom-	2d	piom-	.	.	.	.
4A	-bo e	4c	-bo e	.	.	.	.
2d	con	4f	con	.	.	.	.
.	.	2e	l'o-	.	.	.	.
[4c	l'o-	.	.	.	.	.	.
=14	=14	=14	=14	=14	=14	=14	=14
4c]	.	2d	-ro	2r	.	2r	.
4BnX	.	.	.	.	.	.	.
4c	-ro	2e	Mi-	4r	.	2cc	E
4A	Mi-	.	.	2cc	E	.	.
4.G	-ra-	4.g	-ra-	.	.	2dd	col
.	.	.	.	4b-y	col	.	.
8G	-co-	8g	-co-	.	.	.	.
4F	-li	4c	-li	2a	piom-	2ff	piom-
4F	ri-	4c	ri-	.	.	.	.
=15	=15	=15	=15	=15	=15	=15	=15
2G	-no-	2BnX	-no-	4.g	-bo e	4ee	-bo e
.	.	.	.	.	.	2dd	con
.	.	.	.	8f	con	.	.
2A	-va,	4c	-va	2e	l'o-	.	.
.	.	4c	Mi-	.	.	2cc	l'o-
1r	.	4.G	-ra-	4d	-ro	.	.
.	.	.	.	4d	Mi-	4bnX	.
.	.	8G	-co-	.	.	.	.
.	.	4A	-li	4.c	-ra-	4cc	-ro
.	.	4A	ri-	.	.	4cc	Mi-
.	.	.	.	8c	-co-	.	.
=16	=16	=16	=16	=16	=16	=16	=16
2r	.	2G	-no-	4BnX	-li	4.dd	-ra-
.	.	.	.	4Bni	ri-	.	.
.	.	.	.	.	.	8dd	-co-
4r	.	2g	-va	2c	-no-	4ee	-li
4c	E	.	.	.	.	4ee	ri-
2B-y	fa	4r	.	4d	-va	2dd	-no-
.	.	2g	E	4d	E	.	.
2A	ven-	.	.	4e	fa	4cc	-va
.	.	[4f	fa	4f	ven-	4cc	E
=17	=17	=17	=17	=17	=17	=17	=17
2G	-det-	4f]	.	2g	-det-	2b-y	fa
.	.	4e	ven-	.	.	.	.
2F	-ta	4f	-det-	2c	-ta	2a	ven-
.	.	4f	-ta	.	.	.	.
1C	no-	4e	no-	1cc	no-	4g	-det-
.	.	2f	.	.	.	4a	-ta
.	.	.	.	.	.	2g	no-
.	.	4e	.	.	.	.	.
=18	=18	=18	=18	=18	=18	=18	=18
2F	-va	2f	-va,	2cc	-va	2a	-va
4r	.	4r	.	2cc	D'an-	4r	.
4F	D'an-	4f	E	.	.	4a	D'an-
4A	-ti-	2f	fa	4a	-ti-	4cc	-ti-
4A	-c'ol-	.	.	4a	-c'ol-	4cc	-c'ol-
2B-y	-trag-	2d	ven-	2f	-trag-	2dd	-trag-
=19	=19	=19	=19	=19	=19	=19	=19
4c	-gio	4.e	-det-	2cc	-gio,	4g	-gio
2c	ne	.	.	.	.	8gg	ne
.	.	8f	-ta	.	.	8ff	l'a-
.	.	2g	no-	4r	.	4.ee	-ma-
4B-y	l'a-	.	.	4c	D'an-	.	.
.	.	.	.	.	.	8dd	-t'al-
4A	-ma-	2a	-va	4e	-ti-	2cc	-lo-
4G	-t'al-	.	.	4e	-c'ol-	.	.
2F	-lo-	4r	.	2f	-trag-	2a	-ro,
.	.	4c	D'an-	.	.	.	.
=20	=20	=20	=20	=20	=20	=20	=20
2c	-ro,	4e	-ti-	2g	-gio	2r	.
.	.	4e	-c'ol-	.	.	.	.
4r	.	2f	-trag-	4.cc	ne	2a	D'an-
4F	D'an-	.	.	.	.	.	.
.	.	.	.	8b-y	l'a-	.	.
2F	-ti-	4c	-gio,	4.a	-ma-	4cc	-ti-
.	.	4F	D'an-	.	.	8cc	-c'ol-
.	.	.	.	8g	-t'al-	8cc	-trag-
2D	-c'ol-	4A	-ti-	2f	-lo-	2dd	-gio
.	.	4B-y	-c'ol-	.	.	.	.
=21	=21	=21	=21	=21	=21	=21	=21
2E	-trag-	4c	-trag-	2e	-ro,	4g	ne
.	.	4G	-gio	.	.	8cc	l'a-
.	.	.	.	.	.	8b-y	-ma-
4F	-gio	4.c	ne	2r	.	4a	-t'al-
2c	ne	.	.	.	.	4g	-lo-
.	.	8B-y	l'a-	.	.	.	.
.	.	4A	-ma-	2c	D'an-	2f	-ro,
4B-y	l'a-	4G	-t'al-	.	.	.	.
4A	-ma-	2A	-lo-	4e	-ti-	[2cc	ne
4G	-t'al-	.	.	4e	-c'ol-	.	.
=22	=22	=22	=22	=22	=22	=22	=22
0F	-lo-	1.A	-ro,	2f	-trag-	2cc]	.
.	.	.	.	4c	-gio	2.ff	l'a-
.	.	.	.	2cc	ne	.	.
.	.	.	.	4b-y	l'a-	4ee-i	-ma-
.	.	4f	ne	4a	-ma-	4dd	-t'al-
.	.	4e	l'a-	4a	-t'al-	4cc	-lo-
=23	=23	=23	=23	=23	=23	=23	=23
0G	-ro.	4d	-ma-	0g	-lo-	4bnX	.
.	.	4c	-t'al-	.	.	4cc	.
.	.	4BnX	-lo-	.	.	4dd	.
.	.	4c	.	.	.	2cc	.
.	.	1d	.	.	.	.	.
.	.	.	.	.	.	8bnXL	.
.	.	.	.	.	.	8aJ	.
.	.	.	.	.	.	2bnX	.
=24	=24	=24	=24	=24	=24	=24	=24
2r	.	2c	-ro.	2g	-ro.	2cc	-ro.
4c	Ma	4e	Ma	4g	Ma	4cc	Ma
8c	se	8e	se	8g	se	8cc	se
8A	nel	8e	nel	8a	nel	8cc	nel
4BnX	lie-	4d	lie-	4g	lie-	4dd	lie-
4c	-t'A-	4e	-t'A-	4g	-t'A-	4cc	-t'A-
2F	-pri-	2f	-pri-	2a	-pri-	2cc	-pri-
=25	=25	=25	=25	=25	=25	=25	=25
2F	-le	2f	-le	2a	-le	2cc	-le
4B-i	Rin-	4f	Rin-	4b-y	Rin-	4dd	Rin-
4B-y	-ver-	4f	-ver-	4b-y	-ver-	4dd	-ver-
2B-y	-dir	2f	-dir	2b-y	-dir	2dd	-dir
4A	al	4a	al	4cc	al	4ff	al
4c	mio	4g	mio	4cc	mio	4ee	mio
=26	=26	=26	=26	=26	=26	=26	=26
2.G	crin	2.g	crin	8b-yL	crin	8ddL	crin
.	.	.	.	8a	.	8cc	.
.	.	.	.	8b-y	.	8dd	.
.	.	.	.	8ccJ	.	8eeJ	.
.	.	.	.	4b-y	.	4dd	.
4G	non	4d	non	4b-y	non	4gg	non
4A	dee	4c	dee	4a	dee	4ff	dee
4c	co-	4c	co-	4g	co-	4ee	co-
2G	-ro-	2BnX	-ro-	2g	-ro-	2dd	-ro-
=27	=27	=27	=27	=27	=27	=27	=27
2C	-na,	2c	-na,	2g	-na,	2ee	-na,
2.c	Sec-	2.e	Sec-	2.g	Sec-	2.cc	Sec-
4A	-chi-	4e	-chi-	4a	-chi-	4cc	-chi-
2A	-s'an-	2e	-s'an-	2a	-s'an-	2cc	-s'an-
=28	=28	=28	=28	=28	=28	=28	=28
2E	-co	2e	-co	2g	-co	2bnX	-co
2G	per	2d	per	2g	per	2bnX	per
2.D	mer-	2.d	mer-	2.f#X	mer-	2.a	mer-
4G	-t'in	4d	-t'in	4g	-t'in	4bnX	-t'in
=29	=29	=29	=29	=29	=29	=29	=29
4E	E-	4c	E-	4g	E-	4cc	E-
4F	-li-	4A	-li-	4fnXi	-li-	4cc	-li-
2C	-co-	2G	-co-	2e	-co-	2cc	-co-
2F	-na,	2A	-na,	2f	-na,	2cc	-na,
4c	Ma	4e	Ma	4g	Ma	4cc	Ma
8c	se	8e	se	8g	se	8cc	se
8A	nel	8e	nel	8a	nel	8cc	nel
=30	=30	=30	=30	=30	=30	=30	=30
4BnX	lie-	4d	lie-	4g	lie-	4dd	lie-
4c	-t'A-	4e	-t'A-	4g	-t'A-	4cc	-t'A-
2F	-pri-	2f	-pri-	2a	-pri-	2cc	-pri-
2F	-le	2f	-le	2a	-le	2cc	-le
4B-i	Rin-	4f	Rin-	4b-y	Rin-	4dd	Rin-
4B-y	-ver-	4f	-ver-	4b-y	-ver-	4dd	-ver-
=31	=31	=31	=31	=31	=31	=31	=31
2B-y	-dir	2f	-dir	2b-y	-dir	2dd	-dir
4A	al	4a	al	4cc	al	4ff	al
4c	mio	4g	mio	4cc	mio	4ee	mio
2.G	crin	2.g	crin	8b-yL	crin	8ddL	crin
.	.	.	.	8a	.	8cc	.
.	.	.	.	8b-y	.	8dd	.
.	.	.	.	8ccJ	.	8eeJ	.
.	.	.	.	4b-y	.	4dd	.
4G	non	4d	non	4b-y	non	4gg	non
=32	=32	=32	=32	=32	=32	=32	=32
4A	dee	4c	dee	4a	dee	4ff	dee
4c	co-	4c	co-	4g	co-	4ee	co-
2G	-ro-	2BnX	-ro-	2g	-ro-	2dd	-ro-
2C	-na,	2c	-na,	2g	-na,	2ee	-na,
[2c	Sec-	[2e	Sec-	[2g	Sec-	[2cc	Sec-
=33	=33	=33	=33	=33	=33	=33	=33
4c]	.	4e]	.	4g]	.	4cc]	.
4A	-chi-	4e	-chi-	4a	-chi-	4cc	-chi-
2A	-s'an-	2e	-s'an-	2a	-s'an-	2cc	-s'an-
2E	-co	2e	-co	2g	-co	2bnX	-co
2G	per	2d	per	2g	per	2bnX	per
=34	=34	=34	=34	=34	=34	=34	=34
2.D	mer-	2.d	mer-	2.f#X	mer-	2.a	mer-
4G	-t'in	4d	-t'in	4g	-t'in	4bnX	-t'in
4E	E-	4c	E-	4g	E-	4cc	E-
4F	-li-	4A	-li-	4fnXi	-li-	4cc	-li-
2C	-co-	2G	-co-	2e	-co-	2cc	-co-
=35	=35	=35	=35	=35	=35	=35	=35
0Fl	-na.	0Al	-na.	0fl	-na.	0ccl	-na.
==	==	==	==	==	==	==	==
*-	*-	*-	*-	*-	*-	*-	*-
!!!system-decoration: [*]
!!!RDF**kern: i = editorial accidental
!!!RDF**kern: l = terminal long
!!!ENC: Emiliano Ricciardi
!!!END: 2018
!!!EED: Ricciardi, Emiliano
!!!EEV: 2018/10/28
!!!YEC: Copyright 2018 Emiliano Ricciardi, All Rights Reserved
!!!ONB: Translated from MusicXML on 2018/10/28 and edited by Craig Stuart Sapp
!!@@BEGIN:	VERSEDATA
!!@SOLERTI:	189
!!@CATALOGNUM:	Trm0189
!!@LAST_MODIFIED: 2020/07/12
!!@TITLE:		Secco è l'arbor gentile
!!@GENRE:		madrigale
!!@MANUSRC:	E<sub>1</sub>, F<sub>2</sub>, Pt, V<sub>13/E1</sub>
!!@PRINTSRC:	10, 11, 12, 13, 16, 21, 25, 25a), 30, 34, 68, 78, 141, 166, 169
!!@@BEGIN:	VERSES
!!@ABOUTIT:	IL LAURO SECCO.
!!@ABOUTEN:	THE DRY LAUREL.
!!@EDITOR:	Solerti, Angelo
!!@EDITION_TITLE: Le Rime di Torquato Tasso
!!@EDITION_LOC:	Bologna
!!@EDITION_PUB:	Romagnoli-Dall’Acqua
!!@EDITION_DATE:  1898-1902
!!@EDITION_VOL:	2
!!@EDITION_PAGE:  280-81
!!@TRANSLATOR:	Emiliano Ricciardi and Amyrose McCue Gill
!!@VERSE:
!!	Secco è l'arbor gentile
!!	Che mai le frondi e 'l verde
!!	O per gelo o per fulmine non perde.
!!	O mutata è la legge
!!	De la natura, o 'l sole
!!	Men può di quel che suole
!!	E sol le stelle Amore e 'l mondo regge,
!!	E col piombo e con l'oro
!!	Miracoli rinova
!!	E fa vendetta nova
!!	D'antico oltraggio ne l'amato alloro.
!!	Ma se nel lieto aprile
!!	Rinverdir al mio crin non dee corona,
!!	Secchisi anco Permesso in Elicona.
!!@TVERSE:
!!	Dry is the gentle tree
!!	That never loses it leafy branches and its green
!!	Either to frost or to lightning.
!!	Either changed is the law
!!	Of nature, or the sun
!!	Can do less than usual
!!	And Love alone sustains the stars and the earth,
!!	And with lead and with gold
!!	Renews miracles
!!	And takes revenge anew
!!	For the old offense in the beloved laurel.
!!	But if in happy April
!!	The wreath upon my hair must not become green again,
!!	May even Parnassus in Helicona dry up.
!!@@END:		VERSES
!!@OTHER_CRIT_ED:   None
!!@ATTRIBUTION_ABOUT:	Secure
!!		<br>
!!		Among other sources (see Literary Sources), this poem appears in the authoritative manuscript It. 385, Biblioteca Estense Universitaria, Modena.
!!@DATING:	1582
!!@DEDICATEE:	Peperara, Laura
!!@COMMENTARY:
!!@@END:		VERSEDATA
!!@@BEGIN:	SETTING
!!@CATALOGNUM:	Trm0189b
!!@RIMETITLE:	Secco è l'arbor gentile
!!@SOLERTI:	189
!!@COMPOSER:	Tosone, Marcello
!!@PRINCEPSTITLE:	Il primo libro de madrigali a quattro voci
!!@PRINCEPSLOC:	Genova
!!@NORMLOC:	Genoa
!!@NORMPUB:	Bartoli
!!@NORMPUBSHORT:	Bartoli
!!@PRINCEPSPUB:	Bartoli
!!@PRINCEPSYEAR:	1590
!!@PRINCEPSRISM:	T 1024
!!@REPRINTS:	
!!@OVOICES:	4
!!@EXTANTVOICES:	4
!!@PARTBOOKS:	
!!@EXTPARTBOOKS:	
!!@OCLEFS:	G2,C2,C3,F3
!!@OMENSURATION:	C
!!@OKEYSIG:	b-
!!@FINAL:	F
!!@TIMPEDITOR:	Ricciardi, Emiliano
!!@NOTE:		
!!@@END:		SETTING
